X:4865
L:1/8
Q:1/4=120
M:6/8
K:Gdor
"^Brisk" (G/A/) | B2 B Bcd | cAF F2 A | BAG GAB | A^FD D2 A | B2 B Bcd | cA=F ABc | BAG A^FD | 
 G3 G2 :: d/_e/ | fgf f_ed | cAF F2 ^f | gdg gab | ag=f d2 e | fgf f_ed | cAF ABc | dBG A^FD | 
 G3 G2 :|

